packages/ffe-icons/icons/filled/md/smart_toy.svg

<svg xmlns="http://www.w3.org/2000/svg" height="24" viewBox="0 -960 960 960" width="24"><path d="M180.001-380.001q-41.922 0-70.96-29.038Q80.003-438.078 80.003-480t29.038-70.961q29.038-29.038 70.96-29.038V-680q0-24.442 17.779-42.22 17.778-17.779 42.22-17.779h140.001q0-41.922 29.038-70.96 29.039-29.038 70.961-29.038t70.961 29.038q29.038 29.038 29.038 70.96H720q24.442 0 42.22 17.779 17.779 17.778 17.779 42.22v100.001q41.922 0 70.96 29.038 29.038 29.039 29.038 70.961t-29.038 70.961q-29.038 29.038-70.96 29.038V-200q0 24.442-17.779 42.22-17.778 17.779-42.22 17.779H240q-24.442 0-42.22-17.779-17.779-17.778-17.779-42.22v-180.001Zm179.954-70q20.814 0 35.429-14.57 14.615-14.57 14.615-35.384t-14.57-35.429q-14.57-14.615-35.384-14.615t-35.429 14.57q-14.615 14.57-14.615 35.384t14.57 35.429q14.57 14.615 35.384 14.615Zm240 0q20.814 0 35.429-14.57 14.615-14.57 14.615-35.384t-14.57-35.429q-14.57-14.615-35.384-14.615t-35.429 14.57q-14.615 14.57-14.615 35.384t14.57 35.429q14.57 14.615 35.384 14.615ZM360-290.001h240q12.75 0 21.375-8.628 8.624-8.629 8.624-21.384 0-12.756-8.624-21.371-8.625-8.615-21.375-8.615H360q-12.75 0-21.374 8.628-8.625 8.629-8.625 21.384 0 12.756 8.625 21.371 8.624 8.615 21.374 8.615Z"/></svg>

<svg xmlns="http://www.w3.org/2000/svg" height="24" viewBox="0 -960 960 960" width="24"><path d="M180-380q-41.92 0-70.96-29.04Q80-438.08 80-480q0-41.92 29.04-70.96Q138.08-580 180-580v-100q0-24.44 17.78-42.22Q215.56-740 240-740h140q0-41.92 29.04-70.96Q438.08-840 480-840q41.92 0 70.96 29.04Q580-781.92 580-740h140q24.44 0 42.22 17.78Q780-704.44 780-680v100q41.92 0 70.96 29.04Q880-521.92 880-480q0 41.92-29.04 70.96Q821.92-380 780-380v180q0 24.44-17.78 42.22Q744.44-140 720-140H240q-24.44 0-42.22-17.78Q180-175.56 180-200v-180Zm179.95-70q20.82 0 35.43-14.57Q410-479.14 410-499.95q0-20.82-14.57-35.43Q380.86-550 360.05-550q-20.82 0-35.43 14.57Q310-520.86 310-500.05q0 20.82 14.57 35.43Q339.14-450 359.95-450Zm240 0q20.82 0 35.43-14.57Q650-479.14 650-499.95q0-20.82-14.57-35.43Q620.86-550 600.05-550q-20.82 0-35.43 14.57Q550-520.86 550-500.05q0 20.82 14.57 35.43Q579.14-450 599.95-450ZM360-290h240q12.75 0 21.37-8.63 8.63-8.63 8.63-21.38 0-12.76-8.63-21.37Q612.75-350 600-350H360q-12.75 0-21.37 8.63-8.63 8.63-8.63 21.38 0 12.76 8.63 21.37Q347.25-290 360-290Z"/></svg>
